X: 1
T: Thadelo's
R: slide
M: 12/8
L: 1/8
K: Dmaj
|: c3 cBA B2A F2A | BAB c2d e3 ecA | BAB cBA B2A F2A |1 A2B c2B A3 A2B :|2  A2B c2B A3 Ace | 
|: f2e cBA B2A F2A | f2e c2d e3 ece | f2e cBA B2A F2A|1 A2B c2B A3 Ace :|2 A2B c2B A3 A2B | 